[A]
T4@7V15,3
L3O5CCC1O4B-1G1O5C4CC1O4B-1G1O5C4CC1O4B-1G1O5C4CDD
L3O5CCC1O4B-1G1O5C4CC1O4B-1G1O5C4CC1O4B-1G1O5C4CDD
L3O5E-E-E-1D1C1E-4E-E-1D1C1E-4E-E-1D1C1E-4E-FF
L3O5E-E-E-1D1C1E-4E-E-1D1C1E-4E-E-1D1C1E-4E-FF

[B]
T4@15V15,1
L1O2CCO3CO2CCCO3CO2CDDB-DDDB-DCCA-CCCA-CFFO3FO2FGGO3GO2G
L1O2CCO3CO2CCCO3CO2CDDB-DDDB-DCCA-CCCA-CFFO3FO2FGGO3GO2G
L1O2CCO3CO2CCCO3CO2CDDB-DDDB-DCCA-CCCA-CFFO3FO2FGGO3GO2G
L1O2CCO3CO2CCCO3CO2CDDB-DDDB-DCCA-CCCA-CFFO3FO2FGGO3GO2G

[C]
T4@7V13,3
L3O4GGG1F1D1G4GG1F1D1G4GG1F1D1A-4A-B-B-
L3O4GGG1F1D1G4GG1F1D1G4GG1F1D1A-4A-B-B-
L3O5CCC1O4B-1G1O5C4CC1O4B-1G1O5C4CC1O4B-1G1O5C4CDD
L3O5CCC1O4B-1G1O5C4CC1O4B-1G1O5C4CC1O4B-1G1O5C4CDD
