[A]
T3@15V15,4
L3O5E
L3O5F+8AE9R
L3R7O5DO4BO5DF+5E5D5E5E
L3O5F+8AE9R
L3R7O5DO4BO5DF+5E5D5E5R
L3O5G8F+GAG5F+5E5D
L3O5D7DO4BO5DE7O4B7R
L3O5G6F+6G5AG5F+5E5D7RDO4BO5DE9R
L3R8R

[B]
T3V16S0N2
L3R
L3M3XXXXXXM5XM3XM3XXXXXXM5XM3X
L3M3XXXXXXM5XM3XM3XXXXXXM5XM3X
L3M3XXXXXXM5XM3XM3XXXXXXM5XM3X
L3M3XXXXXXM5XM3XM3XXXXXXM5XM3X
L3M3XXXXXXM5XM3XM3XXXXXXM5XM3X
L3M3XXXXXXM5XM3XM3XXXXXXM5XM3X
L3M3XXXXXXM5XM3XM3XXXXXXM5XM3XL3M3XXXXXXM5XM3XM3XXXXXXM5XM3X
L1M5X5X5XXXRXX

[C]
T3@2V14,3
L3R
L3O4DF+AF+DF+AF+O3AO4C+EC+O3AO4C+EC+
L3O3BO4DF+DO3BO4DF+DO3AO4C+EC+O3AO4C+EC+
L3O4DF+AF+DF+AF+O3AO4C+EC+O3AO4C+EC+
L3O3BO4DF+DO3BO4DF+DO3AO4C+EC+O3AO4C+EC+
L3O4EGBGEGBGO4C+F+AF+C+F+AF+
L3O4DF+AF+DF+AF+O3BO4EGEO3BO4EGE
L3O4EGBGEGBEC+F+AF+C+F+AF+DGBGDGBGC+EAEC+EAE
C+EAEC+EA

