[A]
T3@7V15,4
L3O4E4F1GO5C7RO4D4E1F8G4A1BO5F7RO4A4B1O5C5D5E5
L3O4E4F1GO5C7RD4E1F8O4G4G1O5E5D4O4G1O5E5D4O4G1O5E5D4O4G1O5ED

[B]
T3@3V13,3
L3O3R5CRRG1G1GRR5CRRG1G1G1G1GR5CRRG1G1GRR5CRRG1G1G1G1G
L3O3R5CRRG1G1GRR5D-RRA-1A-1A-1A-1AR5R5GRR5GRR5GRRG

[C]
T3@3V13,3
L3O3R5RRRE1E1ERR5RRRF1F1F1F1FR5RRRF1F1FRR5RRRE1E1E1E1E
L3O3R5RRRE1E1ERR5RRRF1F1F1F1FR5O5C5O4G4R1O5C5O4G4R1O5C5O4G4R1O5CR
